!!!COM: Claude Goudimel
!!!OMD: Psalm 135: Chante de Dieu le renom
**kern	**kern	**kern	**kern
*part4	*part3	*part2	*part1
*staff4	*staff3	*staff2	*staff1
*I"bassus	*I"tenor	*I"contra	*I"superius
*clefF3	*clefC3	*clefC2	*clefG2
*k[b-]	*k[b-]	*k[b-]	*k[b-]
!!LO:TX:omd:t=
*M2/2	*M2/2	*M2/2	*M2/2
*met(c|)	*met(c|)	*met(c|)	*met(c|)
=1	=1	=1	=1
1F	1f	1a	1cc
=2	=2	=2	=2
1G	1d	1g	1b-
=3	=3	=3	=3
2A	2c	2e	2a
2A	2c	2e	2a
=4	=4	=4	=4
2G	2d	2g	2b-
2C	2e	2g	2cc
=5	=5	=5	=5
1F	1f	1a	1cc
=6	=6	=6	=6
1r	1r	1r	1r
=7	=7	=7	=7
1F	1c	1f	1a
=8	=8	=8	=8
1BB-	1d	1f	1b-
=9	=9	=9	=9
2F	2c	2f	2a
2G	2B-	[2d	[2g
=10	=10	=10	=10
2D	1A	2d]	2g]
2F	.	2c	[2f
=11	=11	=11	=11
1C	1G	1c	2f]
.	.	.	2e
=12	=12	=12	=12
1F	1F	1c	1f
=13	=13	=13	=13
1r	1r	1r	1r
=14	=14	=14	=14
1F	1F	1A	1c
=15	=15	=15	=15
1F	1A	1c	1f
=16	=16	=16	=16
2C	2G	2c	2e
2F	2F	2c	2f
=17	=17	=17	=17
2F	2A	2f	2c
2D	2B-	2f	2d
=18	=18	=18	=18
1C	1c	1e	1g
=19	=19	=19	=19
1r	1r	1r	1r
=20	=20	=20	=20
1F	1A	1c	1f
=21	=21	=21	=21
1A	1c	1A	1e
=22	=22	=22	=22
2G	2d	2Bn	2g
2c	2e	2c	2g
=23	=23	=23	=23
2F	2f	2c	2a
2G	2d	2Bn	2g
=24	=24	=24	=24
1C	1c	1c	1g
=25	=25	=25	=25
1r	1r	1r	1r
=26	=26	=26	=26
1F	1c	1f	1a
=27	=27	=27	=27
1G	1B-	1d	1g
=28	=28	=28	=28
2D	2A	2d	2f#X
2C	2c	2e-X	2g
=29	=29	=29	=29
2E-X	2B-	2e-X	2g
2F	2A	2c	2fn
=30	=30	=30	=30
1C	1G	1c	1e
=31	=31	=31	=31
1r	1r	1r	1r
=32	=32	=32	=32
1C	1G	1c	1e
=33	=33	=33	=33
1F	1A	1c	1f
=34	=34	=34	=34
2F	2c	2A	2f
2BB-	2B-	2d	[2g
=35	=35	=35	=35
1C	1A	1c	2g]
.	.	.	[2f
=36	=36	=36	=36
1C	1G	1c	2f]
.	.	.	2e
=37	=37	=37	=37
1FF;	1F;	1c;	1f;
==	==	==	==
*-	*-	*-	*-
!!!software: music21 v.9.7.1
!!!software: music21 v.8.3.0
!!!RDF**kern: > = above
!!!RDF**kern: < = below
